X:1
T:Title
%%score { 1 | 2 }
L:1/8
Q:1/4=100
M:4/4
K:Ab
V:1 treble nm="Grand Piano"
V:2 bass 
V:1
 [CE]2 [Ec]2 [CA]3 E | F>[EG] [FA]>[DF] [CE]4 | E2 B2 B3 E | A>G A>B c4 | [CE]2 [Ec]2 [CA]3 E | %5
w: R.~M.~McIntosh * * *|||||
 F>[EG] [FA]>[DF] [CE]4 | E2 A2 A3 B | A>G F>G [CEA]4 | c2 e2 e2 c2 | [Fd]>[Fd] [Fd]>[Fd] [A,DF]4 | %10
w: |||||
 [A,CE]2 [CEA]2 [CEA]2 [Ec]2 | c>B B>B B4 | c2 e2 e2 c2 | [Fd]>[Fd] [Fd]>[Fd] F4 | E2 A2 A3 B | %15
w: |||||
 A>G F>G [CEA]4 |] %16
w: |
V:2
 [A,,A,]2 [A,,A,]2 [A,,A,]3 [C,A,] | [D,A,D]>[D,A,] [D,A,]>[D,A,] [A,,A,]4 | %2
 [E,G,]2 [E,G,E]2 [E,G,E]3 [E,G,] | [E,A,C]>[E,B,E] [E,A,C]>[E,G,E] [A,E]4 | %4
 [A,,A,]2 [A,,A,]2 [A,,A,]3 [C,A,] | [D,A,D]>[D,A,] [D,A,]>[D,A,] [A,,A,]4 | %6
 [E,A,C]2 [E,CE]2 [E,CE]3 [E,DE] | [E,CE]>[E,B,E] [E,DE]>[E,DE] A,,4 | %8
 [A,E]2 [A,CE]2 [A,CE]2 [A,E]2 | [D,A,]>[D,A,] [D,A,]>[D,A,] D,4 | A,,2 A,,2 A,,2 [A,,A,]2 | %11
 [E,A,E]>[E,G,E] [E,G,E]>[E,G,E] [E,G,E]4 | [A,E]2 [A,CE]2 [A,CE]2 [A,E]2 | %13
 [D,A,]>[D,A,] [D,A,]>[D,A,] [D,A,D]4 | [E,A,C]2 [E,CE]2 [E,CE]3 [E,E] | %15
 [E,CE]>[E,B,E] [E,DE]>[E,DE] A,,4 |] %16

